v2/bot_side_flat.svg

<?xml version="1.0" encoding="UTF-8" standalone="no"?>
<!-- Created with Inkscape (http://www.inkscape.org/) -->

<svg
   width="100mm"
   height="100mm"
   viewBox="0 0 100 100"
   version="1.1"
   id="svg5"
   inkscape:version="1.1.2 (0a00cf5339, 2022-02-04)"
   sodipodi:docname="bot_side_flat.svg"
   xmlns:inkscape="http://www.inkscape.org/namespaces/inkscape"
   xmlns:sodipodi="http://sodipodi.sourceforge.net/DTD/sodipodi-0.dtd"
   xmlns="http://www.w3.org/2000/svg"
   xmlns:svg="http://www.w3.org/2000/svg">
  <sodipodi:namedview
     id="namedview7"
     pagecolor="#ffffff"
     bordercolor="#666666"
     borderopacity="1.0"
     inkscape:pageshadow="2"
     inkscape:pageopacity="0.0"
     inkscape:pagecheckerboard="0"
     inkscape:document-units="mm"
     showgrid="false"
     inkscape:zoom="7.4523611"
     inkscape:cx="104.93319"
     inkscape:cy="337.47694"
     inkscape:window-width="2560"
     inkscape:window-height="1382"
     inkscape:window-x="0"
     inkscape:window-y="0"
     inkscape:window-maximized="1"
     inkscape:current-layer="layer1"
     inkscape:snap-bbox="true"
     inkscape:snap-bbox-edge-midpoints="true"
     inkscape:bbox-nodes="true"
     inkscape:bbox-paths="true"
     inkscape:snap-intersection-paths="true"
     inkscape:snap-global="false"
     inkscape:snap-smooth-nodes="true" />
  <defs
     id="defs2" />
  <g
     inkscape:label="Layer 1"
     inkscape:groupmode="layer"
     id="layer1">
    <path
       id="rect635"
       style="fill:none;stroke:#000000;stroke-width:0.377949"
       transform="scale(0.26458333)"
       d="m -118.04883,275.90625 c -12.56315,0.0129 -22.67773,10.78681 -22.67773,24.1875 v 72.56836 c 0,13.40067 10.11458,24.1875 22.67773,24.1875 h 366.38281 c 12.56315,0 22.67774,-10.78683 22.67774,-24.1875 v -12.57617 c 0,-37.60636 -64.10473,-84.17969 -91.07227,-84.17969 h -34.79754 c -1.5193,0.17484 -3.83078,0.75494 -2.60835,3.07813 l 37.41629,44.71889 -9.11202,7.06264 -12.21137,-13.77366 -13.81145,6.61965 -3.23484,-7.079 -11.45736,2.14981 -7.09205,-40.39406 c -1.16363,-2.50816 -1.98733,-2.2145 -2.96289,-2.62695 z m 0,7.55859 h 6.04688 v 18.89649 h -6.04688 z m 224.63086,0 h 6.04883 v 18.89649 h -6.04883 z M 6.4257812,293.30469 c 3.1307922,7.3e-4 5.6683158,2.53913 5.6679688,5.66992 -7.29e-4,3.13003 -2.537938,5.66724 -5.6679688,5.66797 -3.1307934,3.5e-4 -5.66919222,-2.53718 -5.66992182,-5.66797 -3.4735e-4,-3.13155 2.53836692,-5.67027 5.66992182,-5.66992 z m -74.3183592,18.33008 c 11.481099,-9.2e-4 20.788901,9.30601 20.789062,20.78711 9.16e-4,11.48186 -9.307201,20.78998 -20.789062,20.78906 -11.481099,-1.6e-4 -20.788026,-9.30796 -20.78711,-20.78906 1.61e-4,-11.48034 9.306773,-20.78695 20.78711,-20.78711 z M 44.597656,322.0293 h 13.228516 v 20.78711 H 44.597656 Z m -73.060547,2.83398 c 4.174393,2.5e-4 7.558343,3.38421 7.558594,7.5586 8.2e-4,4.17515 -3.383443,7.56029 -7.558594,7.56054 -4.17515,-2.6e-4 -7.559413,-3.38539 -7.558593,-7.56054 2.51e-4,-4.17439 3.3842,-7.55834 7.558593,-7.5586 z m 34.8886722,35.33984 c 3.1300308,7.3e-4 5.6672398,2.53794 5.6679688,5.66797 3.53e-4,3.1308 -2.5371727,5.6692 -5.6679688,5.66993 -3.1315588,3.5e-4 -5.67027469,-2.53837 -5.66992182,-5.66993 7.296e-4,-3.13079 2.53912842,-5.66832 5.66992182,-5.66797 z M -97.927734,374.92969 h 75.589843 v 6.04687 h -75.589843 z m 135.21289,0 h 75.591794 v 6.04687 H 37.285156 Z m 135.214844,0 h 75.58984 v 6.04687 H 172.5 Z" />
  </g>
</svg>

<?xml version="1.0" encoding="UTF-8" standalone="no"?>
<!-- Created with Inkscape (http://www.inkscape.org/) -->

<svg
   width="100mm"
   height="100mm"
   viewBox="0 0 100 100"
   version="1.1"
   id="svg5"
   inkscape:version="1.1.2 (0a00cf5339, 2022-02-04)"
   sodipodi:docname="bot_side_flat.svg"
   xmlns:inkscape="http://www.inkscape.org/namespaces/inkscape"
   xmlns:sodipodi="http://sodipodi.sourceforge.net/DTD/sodipodi-0.dtd"
   xmlns="http://www.w3.org/2000/svg"
   xmlns:svg="http://www.w3.org/2000/svg">
  <sodipodi:namedview
     id="namedview7"
     pagecolor="#ffffff"
     bordercolor="#666666"
     borderopacity="1.0"
     inkscape:pageshadow="2"
     inkscape:pageopacity="0.0"
     inkscape:pagecheckerboard="0"
     inkscape:document-units="mm"
     showgrid="false"
     inkscape:zoom="3.2074112"
     inkscape:cx="60.952583"
     inkscape:cy="265.4789"
     inkscape:window-width="2560"
     inkscape:window-height="1409"
     inkscape:window-x="2560"
     inkscape:window-y="0"
     inkscape:window-maximized="1"
     inkscape:current-layer="layer1"
     inkscape:snap-bbox="true"
     inkscape:snap-bbox-edge-midpoints="true"
     inkscape:bbox-nodes="true"
     inkscape:bbox-paths="true"
     inkscape:snap-intersection-paths="true"
     inkscape:snap-global="false"
     inkscape:snap-smooth-nodes="true"
     inkscape:snap-midpoints="true"
     inkscape:object-paths="true" />
  <defs
     id="defs2" />
  <g
     inkscape:label="Layer 1"
     inkscape:groupmode="layer"
     id="layer1">
    <path
       id="rect635"
       style="fill:none;stroke:#000000;stroke-width:0.377949"
       d="M -118.04883 283.46484 C -130.61198 283.46484 -140.72656 293.57943 -140.72656 306.14258 L -140.72656 374.17383 C -140.72656 386.73697 -130.61198 396.84961 -118.04883 396.84961 L 248.33398 396.84961 C 260.89713 396.84961 271.01172 386.73697 271.01172 374.17383 L 271.01172 362.38477 C 271.01172 327.12881 206.90699 283.46484 179.93945 283.46484 L 151.90625 283.46484 C 150.67386 283.83418 149.63018 284.6715 150.62109 286.55469 L 167.8418 321.875 L 157.64648 326.83008 L 150.07422 311.35352 C 148.92915 309.12534 147.03418 308.73256 146.86133 311.91211 L 146.86328 321.06445 L 135.49219 321.06445 L 135.63867 286.10352 C 134.46148 283.56612 133.63344 283.9001 132.64258 283.46484 L 112.63086 283.46484 L 112.63086 302.36133 L 106.58203 302.36133 L 106.58203 283.46484 L -112.00195 283.46484 L -112.00195 302.36133 L -118.04883 302.36133 L -118.04883 283.46484 z M 6.4257812 293.30469 A 5.6692912 5.6692912 0 0 1 12.09375 298.97461 A 5.6692912 5.6692912 0 0 1 6.4257812 304.64258 A 5.6692912 5.6692912 0 0 1 0.75585938 298.97461 A 5.6692912 5.6692912 0 0 1 6.4257812 293.30469 z M 172.54492 294.80273 L 183.88281 294.80273 L 183.88281 309.92188 L 172.54492 309.92188 L 172.54492 294.80273 z M 215.85547 309.04883 L 222.4375 322.6582 L 212.23047 327.59375 L 205.64844 313.98438 L 215.85547 309.04883 z M -67.892578 311.63477 A 20.787402 20.787402 0 0 1 -47.103516 332.42188 A 20.787402 20.787402 0 0 1 -67.892578 353.21094 A 20.787402 20.787402 0 0 1 -88.679688 332.42188 A 20.787402 20.787402 0 0 1 -67.892578 311.63477 z M 44.597656 322.0293 L 57.826172 322.0293 L 57.826172 342.81641 L 44.597656 342.81641 L 44.597656 322.0293 z M -28.462891 324.86328 A 7.559055 7.559055 0 0 1 -20.904297 332.42188 A 7.559055 7.559055 0 0 1 -28.462891 339.98242 A 7.559055 7.559055 0 0 1 -36.021484 332.42188 A 7.559055 7.559055 0 0 1 -28.462891 324.86328 z M 6.4257812 360.20312 A 5.6692912 5.6692912 0 0 1 12.09375 365.87109 A 5.6692912 5.6692912 0 0 1 6.4257812 371.54102 A 5.6692912 5.6692912 0 0 1 0.75585938 365.87109 A 5.6692912 5.6692912 0 0 1 6.4257812 360.20312 z M -97.927734 374.92969 L -22.337891 374.92969 L -22.337891 380.97656 L -97.927734 380.97656 L -97.927734 374.92969 z M 37.285156 374.92969 L 112.87695 374.92969 L 112.87695 380.97656 L 37.285156 380.97656 L 37.285156 374.92969 z M 172.5 374.92969 L 248.08984 374.92969 L 248.08984 380.97656 L 172.5 380.97656 L 172.5 374.92969 z "
       transform="scale(0.26458333)" />
  </g>
</svg>
